!!!!SEGMENT: pl-sa--262-a-vii-22_brentner-johann-joseph-ignaz--oderit-me-totus-mundus.krn
!!!cenid: 17xx:552
!!!COM: Brentner, Johann Joseph Ignaz
!!!COM-rismid: pe30000477
!!!CDT: 1689/11/03-1742/06/28
!!!CNT: Czech
!!!OTL: Oderit me totus mundus
!!!PDT:
!!!AGN: Sacred
!!!SMS-siglum: PL-SA
!!!SMS-shelfmark: 262/A VII 22
!!!SMS-shelfwork: W
!!!SMS-variant:
!!!SMS-altvar:
!!!NIFC-rismid: 1001029964
!!!URL-scan: http://bc.bdsandomierz.pl/dlibra/publication/1769/edition/1737/content
!!!ONB-nifc:
**kern	**fba	**kern	**kern	**text	**dynam
*part3	*	*part2	*part1	*part1	*part1
*staff3	*	*staff2	*staff1	*staff1	*
*I"Organo.	*	*I"Violino Unisono.	*I"Tenore Solo	*	*
*I'org	*	*I'vl	*I'T solo	*	*
*clefF4	*	*clefG2	*clefC4	*	*
*k[]	*	*k[]	*k[]	*	*
*C:	*	*C:	*C:	*	*
*M2/2	*	*M2/2	*M2/2	*	*
*met(c|)	*	*met(c|)	*met(c|)	*	*
=1	=1	=1	=1	=1	=1
!LO:TX:a:i:t=all(egr)o pocco	!	!LO:TX:a:i:t=all(egr)o pocco.	!LO:TX:a:i:t=all(egr)o pocco.	!	!
!LO:TX:b:i:t=Oderit me.	!	!LO:TX:b:i:t=Oderit me.	!	!	!
4C/	.	4r	00r	.	.
!LO:TX:a:t=P:problem:8\right:global	!	!	!	!	!
8c\L	.	8g/L	.	.	.
8B\J	.	16a/	.	.	.
.	.	16b/J	.	.	.
!	!	!LO:TX:a:t=P:problem:8\right:global	!	!	!
8A\L	.	8cc\L	.	.	.
!	!	!LO:TX:a:t=P:problem:16\right:global	!	!	!
8E\	X 6	16dd\	.	.	.
.	.	16ee\J	.	.	.
8F\	X 6	8dd\L	.	.	.
8G\J	.	16ee\	.	.	.
.	.	16ff\J	.	.	.
=2	=2	=2	=2	=2	=2
4C/	.	8ee\L	.	.	.
.	.	8cc\J	.	.	.
8E\L	.	16gg\LL	.	.	.
.	.	16ee\	.	.	.
8F\J	.	16dd\	.	.	.
.	.	16cc\JJ	.	.	.
8G\L	.	8b\L	.	.	.
8E\	X 6	8cc\J	.	.	.
8F\	.	8aa\L	.	.	.
8F#X\J	6 5	8cc\J	.	.	.
=3	=3	=3	=3	=3	=3
8G\L	.	4b/	.	.	.
8F\	.	.	.	.	.
8E\	.	8gg\L	.	.	.
8C\J	.	16ff\	.	.	.
.	.	16ee\J	.	.	.
8F\L	.	8.aa\L	.	.	.
8F\	.	.	.	.	.
.	.	16aa\J	.	.	.
8E\	.	8gg\L	.	.	.
8D\J	.	16aa\	.	.	.
.	.	16ff\J	.	.	.
=4	=4	=4	=4	=4	=4
!LO:TX:a:t=P:problem:4\right:global	!	!	!	!	!
4E\	.	8gg\L	.	.	.
.	.	8cc\J	.	.	.
8D\L	.	16ff\LL	.	.	.
.	.	16dd\	.	.	.
8G\J	.	16cc\	.	.	.
.	.	16b\JJ	.	.	.
!	!	!LO:LB:g=original	!	!	!
!	!	!LO:TX:a:t=P:problem:mixed beam	!	!	!
8C\L	.	8ee\L	.	.	.
8E\	.	8e/	.	.	.
8F\	.	8f/	.	.	.
8G\J	.	8g/J	.	.	.
=5	=5	=5	=5	=5	=5
4C/	.	4c/	4r	.	.
8c\L	.	4r	8G/	O-	.
8B\J	.	.	16A/	-de-	.
!	!	!	!LO:TX:a:t=P:problem:16\right:global	!	!
.	.	.	16B\	-rit	.
8A\L	.	2r	16c\	o-	.
.	.	.	16c\	-de-	.
8E\	X 6	.	16d\	-rit	.
.	.	.	16e\	me	.
!	!	!	!LO:TX:a:t=P:problem:8\right:global	!	!
8F\	X 6	.	8d\	to-	.
8G\J	.	.	16e\LL	-tus	.
.	.	.	16f\JJ	.	.
!LO:LB:g=original	!	!	!	!	!
=6	=6	=6	=6	=6	=6
4C/	.	4r	8e\	mun-	.
.	.	.	8c\	-dus	.
8E\L	.	16gg\LL	4r	.	.
.	.	16ee\	.	.	.
8F\J	.	16dd\	.	.	.
.	.	16cc\JJ	.	.	.
8G\L	.	8b\L	2r	.	.
8E\	.	8cc\J	.	.	.
8F\	.	8aa\L	.	.	.
8F#X\J	6 5	8cc\J	.	.	.
=7	=7	=7	=7	=7	=7
4G\	.	4b/	4r	.	.
8c\L	.	8cc\L	8G/	o-	.
8B\J	.	8b\J	16A/	-de-	.
.	.	.	16B\	-rit	.
8A\L	.	8a/L	16c\	o-	.
.	.	.	16c\	-de-	.
8E\	X 6	8e/	16d\	-rit	.
.	.	.	16e\	me	.
8F\	X 6	8f/	8d\	to-	.
8G\J	.	8g/J	16e\LL	-tus	.
.	.	.	16f\JJ	.	.
=8	=8	=8	=8	=8	=8
4C/	.	4c/	8e\	mun-	.
.	.	.	8c\	-d(us)	.
8E\L	X 6	4r	16g\LL	ar-	.
.	.	.	16e\JJ	.	.
8F\J	.	.	16d\LL	-ma	.
.	.	.	16c\JJ	.	.
8G\L	.	2r	8B\	ar-	.
8G\	.	.	16A/LL	-ma	.
.	.	.	16G/JJ	.	.
8E\	X 6	.	16c\LL	pro-	.
.	.	.	16d\JJ	.	.
8C\J	.	.	16e\LL	-fe-	.
.	.	.	16d\JJ	.	.
=9	=9	=9-	=9	=9	=9
!	!	!	!LO:TX:a:t=P:problem:4\right:global	!	!
8G\L	.	00r	4d,\	-rat	.
8A\	.	.	.	.	.
8B\	.	.	8d\	ar-	.
8G\J	.	.	16g\LL	-ma	.
.	.	.	16d\JJ	.	.
8F#X\L	X 6	.	8d\	pro-	.
!LO:TX:a:t=P:problem:16\right:global	!	!	!	!	!
16G\	.	.	16B\LL	-fe-	.
16A\J	.	.	16c\JJ	.	.
8B\L	.	.	8d\	-rat	.
8c\J	.	.	16e\LL	im-	.
.	.	.	16c\JJ	.	.
!	!	!	!LO:LB:g=original	!	!
=10	=10	=10	=10	=10	=10
8G\L	.	.	8d\	-mun-	.
16G\	.	.	8G/	-dur	.
16A\J	.	.	.	.	.
!LO:TX:a:t=P:problem:mixed beam	!	!	!	!	!
8B\L	.	.	8d\	ar-	.
8C/J	.	.	16c\LL	-ma	.
.	.	.	16B\JJ	.	.
!LO:LB:g=original	!	!	!	!	!
8D/L	X #	.	8A/	ar-	.
8D/J	.	.	16B\	-ma	.
.	.	.	16A/	con-	.
4E\	X 7	.	8G/	-cu-	.
.	X 6|	.	16F#X/LL	-ti-	.
.	.	.	16G/JJ	.	.
=11	=11	=11	=11	=11	=11
8D/L	X #	.	4A,/	-o,	.
8D/J	.	.	.	.	.
8BB/L	X 6	.	8d\	ar-	.
8BB/J	.	.	8G/	-ma	.
4C/	.	.	8e\	pro-	.
.	.	.	16c\	-fe-	.
.	.	.	16d\	-rat	.
8C/L	X 6	.	8e\	do-	.
8C/J	.	.	8A/	-los	.
=12	=12	=12	=12	=12	=12
4D/	X #	.	8f#X\	ex-	.
.	.	.	16e\	-ſtru-	.
.	.	.	16d\	-cit	.
8E\L	.	.	8g\	ar-	.
16D\L	.	.	16f#X\LL	-ma	.
16C\JJ	.	.	16e\JJ	.	.
8BB/L	.	.	8d\	e-	.
8GG/J	.	.	8d\	-ius	.
8C/L	.	.	8e\	do-	.
8D/J	.	.	16d\LL	-los	.
.	.	.	16c\JJ	.	.
=13	=13	=13-	=13	=13	=13
!LO:TX:a:t=P:problem:mixed beam	!	!	!	!	!
8E\L	.	2r	8B\	e-	.
8C\	.	.	16c\	-ius	.
.	.	.	16d\	con-	.
8D\	X 4	.	8.A/	-cu-	.
8DD/J	X 3#r	.	.	.	.
.	.	.	16G/	-ti-	.
4GG/	.	4r	4G/	-o	.
8c\L	.	8g/L	4r	.	.
8B\J	.	16a/L	.	.	.
.	.	16b/JJ	.	.	.
=14	=14	=14	=14	=14	=14
8A\L	.	8cc\L	2r	.	.
8E\	X 6	16dd\	.	.	.
.	.	16ee\J	.	.	.
!	!	!LO:LB:g=original	!	!	!
8F\	X 6	8dd\L	.	.	.
8G\J	.	16ee\	.	.	.
.	.	16ff\J	.	.	.
4C/	.	8ee\L	4r	.	.
.	.	8cc\J	.	.	.
8c\L	.	4r	8G/	o-	.
8B\J	.	.	16A/	-de-	.
.	.	.	16B\	-rit	.
!	!	!	!LO:LB:g=original	!	!
=15	=15	=15	=15	=15	=15
8A\L	.	2r	16c\	o-	.
.	.	.	16c\	-de-	.
8E\	.	.	16d\	-rit	.
.	.	.	16e\	me	.
8F\	.	.	8d\	to-	.
8G\J	.	.	16e\LL	-tus	.
.	.	.	16f\JJ	.	.
!LO:LB:g=original	!	!	!	!	!
4C/	.	4r	8e\	mun-	.
.	.	.	8c\	-dus	.
8E\L	.	16gg\LL	4r	.	.
.	.	16ee\	.	.	.
8F\J	.	16dd\	.	.	.
.	.	16cc\JJ	.	.	.
=16	=16	=16	=16	=16	=16
8G\L	.	8b\L	2r	.	.
8E\J	.	8cc\	.	.	.
8F\L	.	8aa\	.	.	.
8F#X\J	6 5	8cc\J	.	.	.
8G\L	.	4b/	4r	.	.
16G\	.	.	.	.	.
16F#\J	.	.	.	.	.
8E\L	.	4r	16g\LL	ar-	.
.	.	.	16e\JJ	.	.
8F#\J	.	.	16d\LL	-ma	.
.	.	.	16c\JJ	.	.
=17	=17	=17-	=17	=17	=17
*	*	*	*	*ij	*
!	!	!LO:N:vis=00	!	!	!
8G\L	.	00r	8B\	ar-	.
8G\	.	.	16A/LL	-ma	.
*	*	*	*	*Xij	*
.	.	.	16G/JJ	.	.
8E\	.	.	16c\LL	pro-	.
.	.	.	16d\JJ	.	.
8C\J	.	.	16e\LL	-fe-	.
.	.	.	16d\JJ	.	.
8G\L	.	.	4d\	-rat	.
8G\J	.	.	.	.	.
4E\	X 6	.	8g\	ar-	.
.	.	.	16c\LL	-ma	.
.	.	.	16B\JJ	.	.
=18	=18	=18	=18	=18	=18
8F\L	.	.	8A/	pro-	.
8E\	X 6	.	16B\	-fe-	.
.	.	.	16c\	-rat	.
8F\	X 6	.	8d\	do-	.
8D\J	.	.	16e\LL	-los	.
.	.	.	16f\JJ	.	.
4G\	.	.	8B\	ex-	.
.	.	.	16A/	-ſtru-	.
.	.	.	16G/	-cit	.
4E\	X 6	.	8c\	ar-	.
.	.	.	8G/	-ma,	.
=19	=19	=19	=19	=19	=19
4BB/	X 6	.	8d\	do-	.
.	.	.	8G/	-los,	.
4C/	.	.	8d\	ar-	.
.	.	.	8G/	-ma	.
8r	.	.	4.f\	do-	.
8D/L	.	.	.	.	.
8BB/	.	.	.	.	.
8GG/J	.	.	16e\	-los	.
.	.	.	16d\	con-	.
=20	=20	=20	=20	=20	=20
!LO:TX:a:t=P:problem:mixed beam	!	!	!	!	!
8C\L	.	.	16e\LL	-cu-	.
.	.	.	16d\	.	.
8F\	.	.	16c\	.	.
.	.	.	16d\JJ	.	.
!	!	!	!LO:LB:g=original	!	!
8G\	.	.	8G/	.	.
8GG/J	.	.	8B\	-ti-	.
!LO:LB:g=original	!	!	!	!	!
4C/	.	.	4c\	-o	.
4BB/	.	.	8d\	ar-	.
.	.	.	8G/	-ma,	.
=21	=21	=21-	=21	=21	=21
4C/	.	1r	8e\	do-	.
.	.	.	8G/	-los	.
4D/	.	.	8f\	ar-	.
.	.	.	8G/	-ma	.
8E\L	.	.	4.g\	do-	.
16D\	.	.	.	.	.
16C\J	.	.	.	.	.
8BB/L	.	.	.	.	.
*	*	*	*Xtuplet	*	*
8GG/J	.	.	24f\LL	.	.
.	.	.	24e\	.	.
.	.	.	24d\JJ	.	.
=22	=22	=22-	=22	=22	=22
8C/L	.	2r	8e\	.	.
8AA/	.	.	16d\	-los	.
.	.	.	16c\	con-	.
8FF/	.	.	8d\	-cu-	.
8GG/J	.	.	8B\	-ti-	.
4C/	.	4r	4c\	-o	.
8c\L	.	8g/L	4r	.	.
8B\J	.	16a/L	.	.	.
.	.	16b/JJ	.	.	.
=23	=23	=23	=23-	=23	=23
!	!	!	!LO:N:vis=0	!	!
8A\L	.	8cc\L	0r;>	.	.
8E\	X 6	16dd\	.	.	.
.	.	16ee\J	.	.	.
8F\	X 6	8dd\L	.	.	.
8G\J	.	16ee\	.	.	.
.	.	16ff\J	.	.	.
4C/	.	8ee\L	.	.	.
.	.	8cc\J	.	.	.
8E\L	X 6	16gg\LL	.	.	.
.	.	16ee\	.	.	.
8F\J	.	16dd\	.	.	.
.	.	16cc\JJ	.	.	.
!	!	!LO:LB:g=original	!	!	!
=24	=24	=24	=24	=24	=24
8G\L	.	8b\L	.	.	.
8E\	.	8cc\J	.	.	.
8F\	.	8aa\L	.	.	.
8F#X\J	6 5	8cc\J	.	.	.
8G\L	.	4b/	.	.	.
8F#\	.	.	.	.	.
8E\	.	8gg\L	.	.	.
8C\J	.	16ff\L	.	.	.
.	.	16ee\JJ	.	.	.
=25	=25	=25	=25	=25	=25
8G\L	.	8.aa\L	1r	.	.
8F\	.	.	.	.	.
.	.	16aa\J	.	.	.
8E\	.	8gg\L	.	.	.
8D\J	.	16aa\	.	.	.
.	.	16ff\J	.	.	.
4E\	X 6	8gg\L	.	.	.
.	.	8cc\J	.	.	.
8D\L	.	16ff\LL	.	.	.
.	.	16dd\	.	.	.
8G\J	.	16cc\	.	.	.
.	.	16b\JJ	.	.	.
=26	=26	=26	=26	=26	=26
!	!	!LO:TX:a:t=P:problem:mixed beam	!	!	!
8C\L	.	8ee\L	2r	.	.
8E\	.	8e/	.	.	.
8F\	.	8f/	.	.	.
8G\J	.	8g/J	.	.	.
!LO:LB:g=original	!	!LO:SIC:v=pod nutą "V" z kropką w środku	!	!	!
!LO:SIC:v=pod nutą "V" z kropką w środku	!	!	!	!	!
4C;>/	.	4c;>/	4r	.	.
8AA/L	.	8cc\L	8e\	De-	.
8D/J	X 6	16b\L	16d\LL	-o	.
.	.	16a\JJ	16c\JJ	.	.
=27	=27	=27	=27	=27	=27
4E\	X #	8g#X/L	8B\	Du-	.
.	.	8g#/J	8B\	-ce	.
8C\L	X 6	8cc/L	8e\	et	.
8D\J	X 6	16b/	16d\LL	Sub	.
.	.	16a/J	16c\JJ	.	.
!	!	!LO:LB:g=original	!	!	!
4E\	X #	8g#X/L	8B\	cru-	.
.	.	8g#/J	8B\	-ce	.
8A\L	.	4r	8c\	ad	.
8A\J	.	.	16B\LL	o-	.
.	.	.	16A\JJ	.	.
=28	=28	=28-	=28	=28	=28
8F\L	X 6	1r	8d\	-be-	.
8C#X\	X 6	.	8e\	-di-	.
8D\	.	.	8f-X\	-en-	.
8G\J	6 -	.	16e\LL	-dum	.
.	.	.	16d\JJ	.	.
8A\L	X #	.	8c#X\	pro-	.
16B\	.	.	8A/	-n(us)	.
16c#X\J	.	.	.	.	.
8d\L	.	.	8f-X\	e-	.
!LO:SIC:v=trudny do identyfikacji zna pod "6" w bc. Przyjęto "-"	!	!	!	!	!
8G\J	6 -	.	16e\LL	-ius	.
.	.	.	16d\JJ	.	.
!	!	!	!LO:LB:g=original	!	!
=29	=29	=29-	=29	=29	=29
4A\	X #	2r	8c#X\	o-	.
.	.	.	16d\	-nus	.
.	.	.	16e\	ex-	.
4B-X\	X 7	.	8d\	-cu-	.
.	X 6	.	8G/	-ti-	.
4A\	X #	4r	4A/	-o	.
8d\L	.	8a\L	4r	.	.
8c\J	.	16b\L	.	.	.
.	.	16cc#X\JJ	.	.	.
=30	=30	=30	=30	=30	=30
!LO:SIC:v=znak przypominający repetycje	!	!	!	!	!
!LO:TX:a:t=P:problem:takt dopisany pod nutami.	!	!	!	!	!
8B-X\L	.	8dd\L	2r	.	.
8F\	X 6	16ee\	.	.	.
.	.	16ff\J	.	.	.
8G\	6 -	8ee\L	.	.	.
8A\J	X #	16ff\	.	.	.
.	.	16gg\J	.	.	.
4D/	.	8ff\L	4r	.	.
.	.	8dd\J	.	.	.
8d\L	.	4r	8A/	De-	.
!LO:SIC:znaczek wyglądający jak custos (B):v	!	!	!	!	!
8c\J	.	.	16B\LL	-o	.
.	.	.	16c#X\JJ	.	.
=31	=31	=31-	=31	=31	=31
8B-X\L	.	00r	8d\	Du-	.
8F\	X 6	.	16e\LL	-ce	.
.	.	.	16f\JJ	.	.
8G\	6 -	.	8e\	et	.
8A\J	X #	.	16f\LL	ſub	.
.	.	.	16g\JJ	.	.
4D/	.	.	8f\	cru-	.
.	.	.	16e\LL	-ce	.
.	.	.	16d\JJ	.	.
8D\L	.	.	8f\	e-	.
8G\J	6 -	.	16e\LL	-i(us)	.
.	.	.	16d\JJ	.	.
=32	=32	=32	=32	=32	=32
8A\L	X #	.	8c#X\	o-	.
8A\	.	.	16B\	-n(us)	.
.	.	.	16A/	ex-	.
8F\	X 6	.	16d\LL	-cu-	.
.	.	.	16e\JJ	.	.
8D\J	.	.	16f\LL	-ti-	.
.	.	.	16e\JJ	.	.
8AA/L	X #	.	4e,\	-o,	.
8BB/J	.	.	.	.	.
!LO:LB:g=original	!	!	!	!	!
4C#X/	.	.	8e\	De-	.
.	.	.	8A/	-o	.
=33	=33	=33	=33	=33	=33
8D\L	.	.	8f\	Du-	.
8F\J	X 6	.	16d\LL	-ce	.
.	.	.	16c\JJ	.	.
!LO:TX:a:t=P:problem:mixed beam	!	!	!	!	!
8G\L	X 6	.	8B\	et	.
8BB/J	.	.	16c\LL	ſub	.
.	.	.	16d\JJ	.	.
8C\L	.	.	8e\	cru-	.
8E\J	X 6	.	16c\LL	-ce	.
.	.	.	16B\JJ	.	.
8F\L	.	.	8A/	e-	.
8E\J	X 6	.	16B\LL	-i(us)	.
.	.	.	16c\JJ	.	.
=34	=34	=34	=34	=34	=34
4D/	.	.	8d\	e-	.
.	.	.	16e\LL	-i(us)	.
.	.	.	16f\JJ	.	.
!	!	!	!LO:LB:g=original	!	!
8r	.	.	16e\LL	e-	.
.	.	.	16d\JJ	.	.
8E\	X #	.	16c\LL	-ius	.
.	.	.	16B\JJ	.	.
!LO:TX:a:t=P:problem:mixed beam	!	!	!	!	!
8F\L	.	.	16A/LL	o-	.
.	.	.	16G#X/JJ	.	.
8D\	.	.	16A/	-n(us)	.
.	.	.	16B\	con-	.
8E\	X 4	.	8.B\	-cu-	.
.	X 3#r	.	.	.	.
8EE/J	.	.	.	.	.
.	.	.	16A/	-ti-	.
=35	=35	=35	=35	=35	=35
4AA/	.	0r	4A,/	-o,	.
4GG#X/	X 6	.	8B\	De-	.
.	.	.	8E/	-o	.
4AA/	.	.	8c\	Du-	.
.	.	.	8E/	-ce	.
4BB/	X 6	.	8d\	et	.
.	.	.	8E/	ſub	.
=36	=36	=36	=36	=36	=36
4C/	.	.	8.e\	Cru-	.
.	.	.	16d\	-ce	.
8r	.	.	16c\LL	e-	.
.	.	.	16B\JJ	.	.
8E\	X #	.	16A/LL	-ius,	.
.	.	.	16G#X/JJ	.	.
!LO:TX:a:t=P:problem:mixed beam	!	!	!	!	!
8F\L	.	.	8A/	o-	.
8D\	.	.	16B\	-n(us)	.
.	.	.	16c\	con-	.
8E\	X 4	.	8.G#X/	-cu-	.
.	X 3-r	.	.	.	.
8EE/J	.	.	.	.	.
.	.	.	16A/	-ti-	.
=37	=37	=37-	=37	=37	=37
!	!	!LO:TX:a:t=P:problem:Tekst "Da Capo" na pięciolinii	!	!	!
!	!	!LO:TX:i:a:t=Da Capo	!	!	!
!LO:TX:a:t=P:problem:przepisane Da Capo (w źródle brak)	!	!LO:TX:a:t=P:problem:przepisane Da Capo (w źródle brak)	!	!	!
4AA/	.	4r	4A/	-o	.
!LO:TX:a:t=P:problem:Tekst "Da Capo" na pięciolinii	!	!	!	!	!
!LO:TX:i:a:t=Da Capo.	!	!	!	!	!
8c\L	.	8g/L	4r	.	.
8B\J	.	16a/	.	.	.
.	.	16b/J	.	.	.
8A\L	.	8cc\L	2r	.	.
8E\	.	16dd\	.	.	.
.	.	16ee\J	.	.	.
8F\	.	8dd\L	.	.	.
8G\J	.	16ee\	.	.	.
.	.	16ff\J	.	.	.
=38	=38	=38	=38	=38	=38
4C/	.	8ee\L	0r	.	.
.	.	8cc\J	.	.	.
8E\L	.	16gg\LL	.	.	.
.	.	16ee\	.	.	.
8F\J	.	16dd\	.	.	.
.	.	16cc\JJ	.	.	.
8G\L	.	8b\L	.	.	.
8E\	.	8cc\J	.	.	.
8F\	.	8aa\L	.	.	.
8F#X\J	.	8cc\J	.	.	.
=39	=39	=39	=39	=39	=39
8G\L	.	4b/	.	.	.
8F\	.	.	.	.	.
8E\	.	8gg\L	.	.	.
8C\J	.	16ff\	.	.	.
.	.	16ee\J	.	.	.
8F\L	.	8.aa\L	.	.	.
8F\	.	.	.	.	.
.	.	16aa\J	.	.	.
8E\	.	8gg\L	.	.	.
8D\J	.	16aa\	.	.	.
.	.	16ff\J	.	.	.
=40	=40	=40	=40	=40	=40
4E\	.	8gg\L	1r	.	.
.	.	8cc\J	.	.	.
8D\L	.	16ff\LL	.	.	.
.	.	16dd\	.	.	.
8G\J	.	16cc\	.	.	.
.	.	16b\JJ	.	.	.
!	!	!LO:TX:a:t=P:problem:mixed beam	!	!	!
8C\L	.	8ee\L	.	.	.
8E\	.	8e/	.	.	.
8F\	.	8f/	.	.	.
8G\J	.	8g/J	.	.	.
=41	=41	=41	=41-	=41	=41
4C/	.	4c/	4r	.	.
8c\L	.	4r	8G/	o-	.
8B\J	.	.	16A/	-de-	.
!	!	!	!	!	!LO:DY:b
!	!	!	!	!	!LO:HP:b:i:t=p.
.	.	.	16B\	-rit	p
!	!	!	!LO:TX:a=P:problem:Napis "Da Capo.." na pięciolinii	!	!
!	!	!	!LO:TX:i:a:t=Da Capo ⟨...⟩ ad\nfinal.	!	!
!	!	!	!LO:SIC:znaczek wyglądający jak custos (c):v	!	!
2r	.	2r	2ryy	.	.
==	==	==	==-	==	==
*-	*-	*-	*-	*-	*-
!!!system-decoration: s1,s2,s3
!!!RDF**kern: > = above
!!!RDF**kern: < = below
!!!EED: Mateusz Mrugas
!!!EST: 2020-10-26
!!!ENC: Krzysztof Stępień
!!!END: 2020-05-23
